public/pixelarticons/close.svg

<svg xmlns="http://www.w3.org/2000/svg" width="24" height="24" fill="currentColor" viewBox="0 0 24 24"><path d="M7 19H5v-2h2zm12 0h-2v-2h2zM9 15v2H7v-2zm8 2h-2v-2h2zm-6-2H9v-2h2zm4 0h-2v-2h2zm-2-2h-2v-2h2zm-2-2H9V9h2zm4 0h-2V9h2zM9 9H7V7h2zm8 0h-2V7h2zM7 7H5V5h2zm12 0h-2V5h2z"/></svg>

<svg xmlns="http://www.w3.org/2000/svg" width="24" height="24" fill="currentColor" viewBox="0 0 24 24">
<path d="M7 19H5V17H7V19ZM19 19H17V17H19V19ZM9 15V17H7V15H9ZM17 17H15V15H17V17ZM11 15H9V13H11V15ZM15 15H13V13H15V15ZM13 13H11V11H13V13ZM11 11H9V9H11V11ZM15 11H13V9H15V11ZM9 9H7V7H9V9ZM17 9H15V7H17V9ZM7 7H5V5H7V7ZM19 7H17V5H19V7Z"/>
</svg>
